svgs/regular/calendar-arrow-up.svg

<svg xmlns="http://www.w3.org/2000/svg" viewBox="0 0 448 512"><!--! Font Awesome Pro 6.3.0 by @fontawesome - https://fontawesome.com License - https://fontawesome.com/license (Commercial License) Copyright 2023 Fonticons, Inc. --><path d="M128 0c13.3 0 24 10.7 24 24V64H296V24c0-13.3 10.7-24 24-24s24 10.7 24 24V64h40c35.3 0 64 28.7 64 64v16 48V448c0 35.3-28.7 64-64 64H64c-35.3 0-64-28.7-64-64V192 144 128C0 92.7 28.7 64 64 64h40V24c0-13.3 10.7-24 24-24zM400 192H48V448c0 8.8 7.2 16 16 16H384c8.8 0 16-7.2 16-16V192zM200 408l0-102.1-39 39c-9.4 9.4-24.6 9.4-33.9 0s-9.4-24.6 0-33.9l80-80c9.4-9.4 24.6-9.4 33.9 0l80 80c9.4 9.4 9.4 24.6 0 33.9s-24.6 9.4-33.9 0l-39-39V408c0 13.3-10.7 24-24 24s-24-10.7-24-24z"/></svg>

<svg xmlns="http://www.w3.org/2000/svg" viewBox="0 0 448 512"><!--! Font Awesome Pro 6.2.0 by @fontawesome - https://fontawesome.com License - https://fontawesome.com/license (Commercial License) Copyright 2022 Fonticons, Inc. --><path d="M200 305.9L160.1 344.1C151.6 354.3 136.4 354.3 127 344.1C117.7 335.6 117.7 320.4 127 311L207 231C216.4 221.7 231.6 221.7 240.1 231L320.1 311C330.3 320.4 330.3 335.6 320.1 344.1C311.6 354.3 296.4 354.3 287 344.1L248 305.9V408C248 421.3 237.3 432 224 432C210.7 432 200 421.3 200 408V305.9zM128 0C141.3 0 152 10.75 152 24V64H296V24C296 10.75 306.7 0 320 0C333.3 0 344 10.75 344 24V64H384C419.3 64 448 92.65 448 128V448C448 483.3 419.3 512 384 512H64C28.65 512 0 483.3 0 448V128C0 92.65 28.65 64 64 64H104V24C104 10.75 114.7 0 128 0zM400 192H48V448C48 456.8 55.16 464 64 464H384C392.8 464 400 456.8 400 448V192z"/></svg>
